X: 29464
T: Night Ride To Armagh
R: reel
M: 4/4
K: Dmajor
|:EEGE AB z A|z GED EEEF|GEEE AGED|AB B2 AGED|
EEGE AB z A|z GED EEEF|GEEE AGED|1 E4 EGFD:|2 DEED E2 ed||
|:BEEE BEED|z eBE Eddc|AEEE ABde|edBE dddc|
|:BEEE BEED|z eBE Eddd|dBAF ABAF|DE E4 ed:|

